X: 804
T: Geldik Gidiyoruz
C: Ömer Dilek
O: Turkey
F: http://compmusic.upf.edu/node/140
N: sevkefza--sarki--semai--geldik_gidiyoruz--omer_dilek
N: makam= sevkefza
N: form= sarki
N: usul= semai = 3/4
M: 3/4
L: 1/16
K: C _B _7/8d  
Q: 1/4=138
%%MIDI tuningsystem comma53
f8 g4  | a8 _1/4b4  | c'8 _1/4b4  | _7/8a4 g4 a4  | \
w:  ARANAĞME  |   |   |   | 
c'8 _1/4b4  | _7/8a4 g4 a4  | _1/4b12  | _1/4b12  | \
w:   |   |   |   | 
c'4 _1/4b4 _7/8a4  | g4 f4 e4  | 
w:   |   | 
c8 d4  | e12  | e8 g4  | f4 e4 d4  | d2c2 _1/4B2_7/8A2 G2A2  | F12  | \
w:   |   |   |   |   |   | 
f8 g4  | a8 _1/4b4  | c'8 _1/4b4  | 
w:  ARANAĞME  |   |   | 
_7/8a4 g4 a4  | c'8 _1/4b4  | _7/8a4 g4 a4  | _1/4b12  | _1/4b12  | \
w:   |   |   |   |   | 
c'4 _1/4b4 _7/8a4  | g4 f4 e4  | c8 d4  | e12  | \
w:   |   |   |   | 
e8 g4  | 
w:   | 
f4 e4 d4  | d2c2 _1/4B2_7/8A2 G2A2  | F12  | \
w:   |   |   | 
f8 g4  | g12  | f4 g4 _7/8a4  | g8 z4  | c'4 _1/4b4 _7/8a4  | 
w:  Gel  |  dik   |  gi di yo  |  ruz   |  bir  *  şey   | 
_7/8a2g2 f4 a2g2  | g12  | g8 z4  | e8 f4  | f12  | \
w:  gör *  *  me  |  den    |   |  Sev  |  dik   | 
e4 f4 g4  | f8 z4  | _7/8a4 g4 f4  | f2e2 d4 f2e2  | 
w:  se vi yo  |  ruz   |  bir  *  gün   |  gül *  *  me  | 
e12  | e8 z4  | c8 d4  | d12  | c4 d4 e4  | d8 z4  | \
w:  den    |   |  Her   |  gün   |  ö lü yo  |  ruz   | 
f4 e4 d4  | d2c2 B4 B2A2  | B12  | B8 z4  | 
w:  kab *  re   |  gir *  *  me  |  den    |   | 
c4 c8  | c4 B4 _A4  | B4 B8  | B4 _A4 G4  | \
w:  Ha yat   |  böy *  le   |  za man   |  böy *  le   | 
B8 _A4  | B2_A2 G2F2 E2F2  | G12  | G4 _A4 B4  | 
w:  yıl   |  böy  |  le    |  SAZ  | 
B4 B8  | B4 _A4 G4  | G4 =d8  | c2_1/4B2 _7/8A2G2 F4  | \
w:  Fer man   |  böy *  le   |  ker van   |  böy *  *  *  le   | 
=d8 c4  | c2_1/4B2 _7/8A2G2 F2E2  | F12  | 
w:  yol   |  böy  |  le    | 
F8 z4  | c4 c8  | c4 B4 _A4  | B4 B8  | B4 _A4 G4  | \
w:   |  Ha yat   |  böy *  le   |  za man   |  böy *  le   | 
B8 _A4  | B2_A2 G2F2 E2F2  | G12  | 
w:  yıl   |  böy  |  le    | 
G4 _A4 B4  | B4 B8  | B4 _A4 G4  | G4 =d8  | \
w:  SAZ  |  Fer man   |  böy *  le   |  ker van   | 
c2_1/4B2 _7/8A2G2 F4  | =d8 c4  | c2_1/4B2 _7/8A2G2 F2E2  | 
w:  böy *  *  *  le   |  yol   |  böy  | 
F12  | F8 z4  | f8 g4  | a8 _1/4b4  | c'8 _1/4b4  | \
w:  le    |   |  ARANAĞME  |   |   | 
_7/8a4 g4 a4  | c'8 _1/4b4  | _7/8a4 g4 a4  | _1/4b12  | _1/4b12  | \
w:   |   |   |   |   | 
c'4 _1/4b4 _7/8a4  | 
w:   | 
g4 f4 e4  | c8 d4  | e12  | e8 g4  | f4 e4 d4  | \
w:   |   |   |   |   | 
d2c2 _1/4B2_7/8A2 G2A2  | F12  | f8 g4  | g12  | 
w:   |   |  Bah tı  |  mız   | 
f4 g4 _7/8a4  | g8 z4  | c'4 _1/4b4 _7/8a4  | \
w:  bağ *  lan  |  mış   |  san *  ki   | 
_7/8a2g2 f4 a2g2  | g12  | g8 z4  | e4 f4 z4  | \
w:  doğ *  *  ma  |  dan    |   |  Çi le   | 
e4 f4 g4  | 
w:  ö rü yo  | 
f12  | f8 z4  | _7/8a4 g4 f4  | f2e2 d4 f2e2  | e12  | \
w:  ruz   |   |  her  *  gün   |  dur *  *  ma  |  dan    | 
e8 z4  | c8 d4  | d12  | c4 d4 e4  | d8 z4  | 
w:   |  Her  şe  |  ye   |  ra *  zı  |  yız   | 
f4 e4 d4  | d2c2 B4 B2A2  | B12  | B8 z4  | \
w:  bir  *  şey   |  sor *  *  ma  |  dan    |   | 
c4 c8  | c4 B4 _A4  | B4 B8  | B4 _A4 G4  | 
w:  Ha yat   |  böy *  le   |  za man   |  böy *  le   | 
B8 _A4  | B2_A2 G2F2 E2F2  | G12  | G4 _A4 B4  | \
w:  yıl   |  böy  |  le    |  SAZ  | 
B4 B8  | B4 _A4 G4  | G4 =d8  | c2_1/4B2 _7/8A2G2 F4  | 
w:  Fer man   |  böy *  le   |  ker van   |  böy *  *  *  le   | 
=d8 c4  | c2_1/4B2 _7/8A2G2 F2E2  | F12  | \
w:  yol   |  böy  |  le    | 
F8 z4  | c4 c8  | c4 B4 _A4  | B4 B8  | B4 _A4 G4  | 
w:   |  Ha yat   |  böy *  le   |  za man   |  böy *  le   | 
B8 _A4  | B2_A2 G2F2 E2F2  | G12  | G4 _A4 B4  | \
w:  yıl   |  böy  |  le    |  SAZ  | 
B4 B8  | B4 _A4 G4  | G4 =d8  | c2_1/4B2 _7/8A2G2 F4  | 
w:  Fer man   |  böy *  le   |  ker van   |  böy *  *  *  le   | 
=d8 c4  | c2_1/4B2 _7/8A2G2 F2E2  | F12  | \
w:  yol   |  böy  |  le    | 
F8 z4  | |


